;FLAVOR:UltiGCode
;TIME:11747
;MATERIAL:24098
;MATERIAL2:0
;NOZZLE_DIAMETER:0.6
;MINX:59.104
;MINY:76.302
;MINZ:0.48
;MAXX:162.86
;MAXY:146.697
;MAXZ:27.055
;Generated with Cura_SteamEngine 4.8.0
M82 ;absolute extrusion mode
G0 F3000 Y50 ;avoid prime blob
G92 E0
G92 E0
G10
;LAYER_COUNT:171
;LAYER:-8
M107
G0 F7200 X66.996 Y83.443 Z0.48
;TYPE:SUPPORT-INTERFACE
G11
G1 F1237.5 X67.158 Y83.322 E0.11647
G1 X67.856 Y82.841 E0.60473
G1 X68.013 Y82.741 E0.71195
G1 X68.793 Y82.284 E1.23266
G1 X68.897 Y82.228 E1.3007
G1 X69.744 Y81.812 E1.84424
G1 X69.862 Y81.759 E1.91875
G1 X70.685 Y81.427 E2.42992
G1 X70.858 Y81.365 E2.53577
G1 X71.799 Y81.063 E3.10502
G1 X72.39 Y80.856 E3.46571
G1 X73.266 Y80.384 E4.03887
G1 X73.807 Y80.025 E4.41285
G1 X73.928 Y79.952 E4.49425
G1 X74.717 Y79.509 E5.01545
G1 X74.837 Y79.447 E5.09325
G1 X75.666 Y79.057 E5.62095
G1 X75.788 Y79.006 E5.69712
G1 X76.627 Y78.685 E6.21455
G1 X76.796 Y78.627 E6.31746
G1 X77.645 Y78.372 E6.82807
G1 X77.776 Y78.337 E6.90617
G1 X78.693 Y78.132 E7.4474
G1 X78.803 Y78.112 E7.5118
G1 X79.717 Y77.977 E8.04398
G1 X79.854 Y77.962 E8.12336
G1 X80.753 Y77.895 E8.64262
G1 X80.91 Y77.887 E8.73317
G1 X81.428 Y77.879 E9.03157
G1 X86.959 Y77.88 E12.21743
G1 X87.963 Y77.916 E12.7961
G1 X88.079 Y77.924 E12.86308
G1 X88.967 Y78.023 E13.37774
G1 X89.144 Y78.048 E13.4807
G1 X90.021 Y78.211 E13.9945
G1 X90.293 Y78.271 E14.15494
G1 X90.974 Y78.378 E14.55201
G1 X91.682 Y78.398 E14.95998
G1 X92.386 Y78.328 E15.36748
G1 X93.078 Y78.171 E15.77621
G1 X93.758 Y77.92 E16.19372
G1 X93.906 Y77.853 E16.28729
G1 X94.708 Y77.53 E16.7853
G1 X94.881 Y77.468 E16.89116
G1 X95.713 Y77.201 E17.39446
G1 X95.862 Y77.159 E17.48363
G1 X96.725 Y76.95 E17.99509
G1 X96.899 Y76.914 E18.09743
G1 X97.773 Y76.769 E18.60774
G1 X97.946 Y76.747 E18.70819
G1 X98.815 Y76.667 E19.21085
G1 X98.962 Y76.659 E19.29565
G1 X99.703 Y76.638 E19.72263
G1 X101.048 Y76.639 E20.49735
G1 X102.052 Y76.675 E21.07603
G1 X102.168 Y76.683 E21.14301
G1 X103.056 Y76.782 E21.65766
G1 X103.233 Y76.807 E21.76063
G1 X104.106 Y76.969 E22.27206
G1 X104.254 Y77.002 E22.3594
G1 X105.111 Y77.226 E22.86962
G1 X105.297 Y77.282 E22.9815
G1 X106.118 Y77.562 E23.48114
G1 X106.261 Y77.617 E23.56939
G1 X106.498 Y77.717 E23.71756
G1 X107.148 Y77.946 E24.11452
G1 X107.843 Y78.095 E24.52393
G1 X108.648 Y78.155 E24.9889
G1 X109.5 Y78.156 E25.47965
G1 X110.504 Y78.192 E26.05833
G1 X110.62 Y78.2 E26.1253
G1 X111.508 Y78.299 E26.63996
G1 X111.685 Y78.324 E26.74292
G1 X112.558 Y78.486 E27.25435
G1 X112.706 Y78.519 E27.3417
G1 X113.563 Y78.743 E27.85191
G1 X113.736 Y78.795 E27.95596
G1 X113.962 Y78.871 E28.0933
G1 X114.627 Y79.05 E28.48998
G1 X115.328 Y79.147 E28.8976
G1 X116.035 Y79.154 E29.30485
G1 X116.74 Y79.073 E29.7136
G1 X117.433 Y78.899 E30.12516
G1 X118.216 Y78.648 E30.59878
G1 X118.376 Y78.603 E30.69451
G1 X119.223 Y78.398 E31.19647
G1 X119.397 Y78.362 E31.29882
G1 X120.271 Y78.217 E31.80912
G1 X120.444 Y78.195 E31.90957
G1 X121.313 Y78.115 E32.41223
G1 X121.46 Y78.107 E32.49703
G1 X122.201 Y78.086 E32.92402
G1 X124.759 Y78.087 E34.39743
G1 X125.769 Y78.124 E34.97958
G1 X125.833 Y78.128 E35.01651
G1 X126.521 Y78.133 E35.41281
G1 X127.269 Y78.04 E35.84698
G1 X127.51 Y77.993 E35.98841
G1 X127.699 Y77.963 E36.09863
G1 X128.591 Y77.853 E36.61632
G1 X128.735 Y77.841 E36.69955
G1 X129.613 Y77.797 E37.20591
G1 X129.788 Y77.794 E37.30673
G1 X130.687 Y77.816 E37.82471
G1 X130.836 Y77.825 E37.91069
G1 X131.737 Y77.913 E38.43213
G1 X131.855 Y77.929 E38.50072
G1 X132.745 Y78.08 E39.02069
G1 X133.637 Y78.155 E39.53629
G1 X134.898 Y78.156 E40.26263
G1 X135.902 Y78.192 E40.8413
G1 X136.018 Y78.2 E40.90828
G1 X136.906 Y78.299 E41.42294
G1 X137.083 Y78.324 E41.5259
G1 X137.956 Y78.486 E42.03733
G1 X138.104 Y78.519 E42.12467
G1 X138.961 Y78.743 E42.63489
G1 X139.147 Y78.799 E42.74678
G1 X139.968 Y79.079 E43.24642
G1 X140.14 Y79.145 E43.35253
G1 X140.918 Y79.475 E43.83931
G1 X141.1 Y79.56 E43.95501
G1 X141.805 Y79.923 E44.41176
G1 X142.437 Y80.199 E44.80899
G1 X143.116 Y80.398 E45.21654
G1 X143.811 Y80.51 E45.62203
G1 X144.336 Y80.535 E45.92477
G1 X147.465 Y80.536 E47.72707
G1 X148.469 Y80.572 E48.30575
G1 X148.585 Y80.58 E48.37272
G1 X149.473 Y80.679 E48.88738
G1 X149.65 Y80.704 E48.99034
G1 X150.523 Y80.866 E49.50178
G1 X150.671 Y80.899 E49.58912
G1 X151.528 Y81.123 E50.09933
G1 X151.714 Y81.179 E50.21122
G1 X152.535 Y81.459 E50.71086
G1 X152.707 Y81.525 E50.81698
G1 X153.485 Y81.855 E51.30375
G1 X153.667 Y81.94 E51.41945
G1 X154.44 Y82.338 E51.92025
G1 X154.574 Y82.414 E52.00899
G1 X155.344 Y82.882 E52.528
G1 X155.5 Y82.986 E52.636
G1 X156.192 Y83.481 E53.12607
G1 X156.33 Y83.587 E53.2263
G1 X157.035 Y84.174 E53.75471
G1 X157.137 Y84.265 E53.83345
G1 X157.682 Y84.781 E54.26575
G1 X157.814 Y84.914 E54.37368
G1 X158.469 Y85.621 E54.92882
G1 X158.58 Y85.75 E55.02684
G1 X159.117 Y86.42 E55.52142
G1 X159.238 Y86.582 E55.63789
G1 X159.714 Y87.272 E56.12072
G1 X159.819 Y87.437 E56.23338
G1 X160.263 Y88.194 E56.73887
G1 X160.344 Y88.343 E56.83656
G1 X160.734 Y89.137 E57.3461
G1 X160.801 Y89.287 E57.44072
G1 X161.141 Y90.128 E57.96323
G1 X161.189 Y90.264 E58.0463
G1 X161.46 Y91.106 E58.55579
G1 X161.503 Y91.258 E58.64678
G1 X161.713 Y92.126 E59.16117
G1 X161.749 Y92.3 E59.26352
G1 X161.892 Y93.161 E59.76625
G1 X161.916 Y93.347 E59.87427
G1 X161.996 Y94.216 E60.37694
G1 X162.004 Y94.363 E60.46173
G1 X162.025 Y95.09 E60.88066
G1 X162.025 Y104.117 E66.08021
G1 X162.068 Y104.803 E66.47612
G1 X162.179 Y105.402 E66.82702
G1 X162.215 Y105.549 E66.9142
G1 X162.245 Y105.694 E66.99948
G1 X162.392 Y106.579 E67.51623
G1 X162.416 Y106.765 E67.62425
G1 X162.496 Y107.634 E68.12691
G1 X162.504 Y107.781 E68.21171
G1 X162.525 Y108.508 E68.63064
G1 X162.525 Y114.4 E72.02443
G1 X162.488 Y115.421 E72.61291
G1 X162.481 Y115.527 E72.6741
G1 X162.381 Y116.425 E73.19455
G1 X162.356 Y116.602 E73.29751
G1 X162.196 Y117.464 E73.8025
G1 X162.154 Y117.655 E73.91515
G1 X162.048 Y118.331 E74.30928
G1 X162.025 Y118.837 E74.60104
G1 X162.025 Y127.818 E79.77409
G1 X161.988 Y128.839 E80.36258
G1 X161.981 Y128.945 E80.42376
G1 X161.881 Y129.843 E80.94421
G1 X161.856 Y130.02 E81.04717
G1 X161.694 Y130.893 E81.55861
G1 X161.661 Y131.041 E81.64595
G1 X161.437 Y131.898 E82.15616
G1 X161.385 Y132.071 E82.26021
G1 X161.101 Y132.904 E82.76714
G1 X161.036 Y133.076 E82.87305
G1 X160.705 Y133.855 E83.36058
G1 X160.627 Y134.023 E83.46727
G1 X160.219 Y134.817 E83.98146
G1 X160.152 Y134.935 E84.05962
G1 X159.681 Y135.709 E84.5815
G1 X159.576 Y135.867 E84.69078
G1 X159.079 Y136.562 E85.18292
G1 X158.973 Y136.7 E85.28315
G1 X158.399 Y137.39 E85.80013
G1 X158.307 Y137.494 E85.88011
G1 X157.779 Y138.052 E86.3226
G1 X157.646 Y138.184 E86.43054
G1 X156.948 Y138.831 E86.97874
G1 X156.812 Y138.948 E87.08208
G1 X156.14 Y139.487 E87.57827
G1 X155.978 Y139.608 E87.69474
G1 X155.28 Y140.089 E88.18301
G1 X155.123 Y140.189 E88.29022
G1 X154.343 Y140.646 E88.81094
G1 X154.239 Y140.702 E88.87897
G1 X153.392 Y141.118 E89.42251
G1 X153.282 Y141.168 E89.49211
G1 X152.441 Y141.507 E90.0144
G1 X152.285 Y141.563 E90.10987
G1 X151.446 Y141.832 E90.61737
G1 X151.297 Y141.874 E90.70654
G1 X150.434 Y142.083 E91.21799
G1 X150.261 Y142.119 E91.31978
G1 X149.386 Y142.264 E91.83065
G1 X149.212 Y142.286 E91.93167
G1 X148.344 Y142.366 E92.43376
G1 X148.197 Y142.374 E92.51856
G1 X147.456 Y142.395 E92.94554
G1 X144.32 Y142.395 E94.75188
G1 X143.632 Y142.439 E95.14898
G1 X142.936 Y142.572 E95.55713
G1 X142.263 Y142.793 E95.96514
G1 X141.613 Y143.103 E96.37994
G1 X141.54 Y143.144 E96.42817
G1 X141.41 Y143.212 E96.51267
G1 X140.59 Y143.597 E97.03446
G1 X140.468 Y143.648 E97.11063
G1 X139.629 Y143.969 E97.62805
G1 X139.46 Y144.027 E97.73097
G1 X138.609 Y144.282 E98.24268
G1 X138.48 Y144.317 E98.31967
G1 X137.563 Y144.522 E98.8609
G1 X137.453 Y144.542 E98.9253
G1 X136.539 Y144.677 E99.45747
G1 X136.402 Y144.692 E99.53686
G1 X135.503 Y144.759 E100.05612
G1 X135.346 Y144.767 E100.14667
G1 X134.828 Y144.775 E100.44507
G1 X133.855 Y144.775 E101.00552
G1 X133.176 Y144.818 E101.39741
G1 X132.8 Y144.879 E101.61681
G1 X131.837 Y145.069 E102.1822
G1 X131.708 Y145.09 E102.25748
G1 X130.798 Y145.2 E102.78545
G1 X130.625 Y145.215 E102.88547
G1 X129.776 Y145.256 E103.37507
G1 X129.577 Y145.258 E103.4897
G1 X128.717 Y145.237 E103.98521
G1 X128.525 Y145.225 E104.09601
G1 X127.685 Y145.143 E104.58215
G1 X127.464 Y145.113 E104.71062
G1 X126.627 Y144.969 E105.19981
G1 X126.498 Y144.942 E105.27573
G1 X125.819 Y144.845 E105.6708
G1 X125.243 Y144.831 E106.00267
G1 X124.755 Y144.844 E106.28386
G1 X122.192 Y144.843 E107.76015
G1 X121.188 Y144.807 E108.33883
G1 X121.072 Y144.799 E108.4058
G1 X120.184 Y144.7 E108.92046
G1 X120.007 Y144.675 E109.02342
G1 X119.136 Y144.513 E109.53372
G1 X118.986 Y144.48 E109.62219
G1 X118.131 Y144.257 E110.13114
G1 X117.971 Y144.208 E110.22753
G1 X117.763 Y144.139 E110.35376
G1 X117.099 Y143.959 E110.75002
G1 X116.397 Y143.862 E111.15822
G1 X115.69 Y143.855 E111.56547
G1 X114.985 Y143.936 E111.97422
G1 X114.291 Y144.11 E112.38634
G1 X113.538 Y144.351 E112.84174
G1 X113.382 Y144.395 E112.9351
G1 X112.53 Y144.601 E113.43999
G1 X112.357 Y144.637 E113.54178
G1 X111.482 Y144.782 E114.05265
G1 X111.308 Y144.804 E114.15367
G1 X110.44 Y144.884 E114.65576
G1 X110.293 Y144.892 E114.74056
G1 X109.552 Y144.913 E115.16754
G1 X108.482 Y144.913 E115.78386
G1 X107.794 Y144.957 E116.18096
G1 X107.098 Y145.09 E116.58911
G1 X106.422 Y145.313 E116.99913
G1 X106.044 Y145.467 E117.23423
G1 X105.861 Y145.532 E117.34609
G1 X105.036 Y145.797 E117.8452
G1 X104.88 Y145.841 E117.93856
G1 X104.017 Y146.05 E118.45002
G1 X103.844 Y146.086 E118.5518
G1 X102.969 Y146.231 E119.06268
G1 X102.795 Y146.253 E119.1637
G1 X101.927 Y146.333 E119.66579
G1 X101.78 Y146.341 E119.75058
G1 X101.039 Y146.362 E120.17757
G1 X99.694 Y146.361 E120.95229
G1 X98.69 Y146.325 E121.53097
G1 X98.574 Y146.317 E121.59794
G1 X97.686 Y146.218 E122.1126
G1 X97.509 Y146.193 E122.21556
G1 X96.638 Y146.031 E122.72586
G1 X96.488 Y145.998 E122.81433
G1 X95.631 Y145.774 E123.32454
G1 X95.445 Y145.718 E123.43643
G1 X94.624 Y145.438 E123.93607
G1 X94.452 Y145.372 E124.04219
G1 X93.668 Y145.039 E124.53282
G1 X93.584 Y145.001 E124.58592
G1 X92.942 Y144.751 E124.98276
G1 X92.255 Y144.581 E125.39041
G1 X91.552 Y144.497 E125.79822
G1 X90.84 Y144.503 E126.20835
G1 X90.05 Y144.62 E126.66835
G1 X89.571 Y144.726 E126.95093
G1 X89.443 Y144.749 E127.02584
G1 X88.529 Y144.884 E127.55801
G1 X88.392 Y144.899 E127.6374
G1 X87.493 Y144.966 E128.15666
G1 X87.336 Y144.974 E128.24721
G1 X86.818 Y144.982 E128.54561
G1 X81.451 Y144.981 E131.637
G1 X80.447 Y144.945 E132.21568
G1 X80.331 Y144.937 E132.28265
G1 X79.443 Y144.838 E132.79731
G1 X79.266 Y144.813 E132.90027
G1 X78.395 Y144.651 E133.41057
G1 X78.245 Y144.618 E133.49904
G1 X77.388 Y144.394 E134.00925
G1 X77.202 Y144.338 E134.12114
G1 X76.381 Y144.058 E134.62078
G1 X76.209 Y143.992 E134.7269
G1 X75.431 Y143.662 E135.21367
G1 X75.249 Y143.577 E135.32937
G1 X74.476 Y143.179 E135.83017
G1 X74.334 Y143.099 E135.92405
G1 X73.585 Y142.643 E136.42914
G1 X73.549 Y142.619 E136.45406
G1 X73.184 Y142.399 E136.69954
G1 X73.174 Y142.404 E136.70598
G1 X72.953 Y142.277 E136.8528
G1 X72.307 Y142.007 E137.25609
G1 X71.894 Y141.881 E137.5048
G1 X71.586 Y141.801 E137.68809
G1 X71.445 Y141.758 E137.773
G1 X70.602 Y141.471 E138.28594
G1 X70.43 Y141.405 E138.39205
G1 X69.652 Y141.075 E138.87883
G1 X69.47 Y140.99 E138.99453
G1 X68.697 Y140.592 E139.49533
G1 X68.563 Y140.516 E139.58406
G1 X67.793 Y140.048 E140.10308
G1 X67.637 Y139.944 E140.21107
G1 X66.939 Y139.445 E140.70529
G1 X66.807 Y139.343 E140.80138
G1 X66.102 Y138.756 E141.32979
G1 X66 Y138.665 E141.40853
G1 X65.455 Y138.149 E141.84083
G1 X65.311 Y138.003 E141.95895
G1 X64.668 Y137.309 E142.50389
G1 X64.557 Y137.18 E142.60192
G1 X64.002 Y136.488 E143.11287
G1 X63.907 Y136.36 E143.20469
G1 X63.418 Y135.65 E143.70126
G1 X63.317 Y135.491 E143.80976
G1 X62.861 Y134.713 E144.32919
G1 X62.805 Y134.609 E144.39722
G1 X62.389 Y133.762 E144.94076
G1 X62.336 Y133.644 E145.01527
G1 X61.995 Y132.799 E145.54013
G1 X61.942 Y132.649 E145.63176
G1 X61.672 Y131.807 E146.14108
G1 X61.634 Y131.671 E146.22242
G1 X61.418 Y130.783 E146.74882
G1 X61.39 Y130.642 E146.83162
G1 X61.3 Y130.099 E147.14866
G1 X61.144 Y129.423 E147.54826
G1 X61.095 Y129.298 E147.6256
G1 X61.124 Y129.286 E147.64368
G1 X60.478 Y127.809 E148.57224
G1 X60.411 Y127.64 E148.67696
G1 X60.124 Y126.824 E149.1752
G1 X60.068 Y126.646 E149.28268
G1 X59.844 Y125.825 E149.77286
G1 X59.796 Y125.615 E149.89694
G1 X59.632 Y124.776 E150.38935
G1 X59.608 Y124.616 E150.48254
G1 X59.5 Y123.723 E151.00066
G1 X59.487 Y123.567 E151.09083
G1 X59.442 Y122.454 E151.73244
G1 X59.44 Y122.39 E151.76932
G1 X59.443 Y119.967 E153.16497
G1 X59.446 Y100.316 E164.48394
G1 X59.483 Y99.295 E165.07243
G1 X59.49 Y99.189 E165.13362
G1 X59.59 Y98.291 E165.65406
G1 X59.617 Y98.102 E165.76403
G1 X59.775 Y97.251 E166.26258
G1 X59.81 Y97.093 E166.3558
G1 X60.038 Y96.22 E166.87551
G1 X60.08 Y96.081 E166.95915
G1 X60.368 Y95.237 E167.47282
G1 X60.439 Y95.051 E167.58749
G1 X60.767 Y94.28 E168.07011
G1 X60.897 Y94.001 E168.2474
G1 X61.027 Y93.696 E168.43837
G1 X61.24 Y93.049 E168.83072
G1 X61.325 Y92.664 E169.05782
G1 X61.439 Y92.05 E169.41753
G1 X61.475 Y91.889 E169.51255
G1 X61.705 Y91.008 E170.03702
G1 X61.748 Y90.867 E170.12193
G1 X62.035 Y90.025 E170.63432
G1 X62.101 Y89.853 E170.74043
G1 X62.431 Y89.075 E171.22721
G1 X62.519 Y88.886 E171.3473
G1 X62.914 Y88.12 E171.84372
G1 X62.984 Y87.995 E171.92624
G1 X63.458 Y87.216 E172.45148
G1 X63.562 Y87.06 E172.55947
G1 X64.073 Y86.346 E173.06521
G1 X64.154 Y86.24 E173.14205
G1 X64.737 Y85.54 E173.66678
G1 X64.829 Y85.436 E173.74676
G1 X65.357 Y84.878 E174.18925
G1 X65.497 Y84.74 E174.30248
G1 X66.197 Y84.091 E174.85231
G1 X66.326 Y83.98 E174.95034
G1 X66.996 Y83.443 E175.44491
G0 F7200 X67.2 Y83.293
G1 F1237.5 X67.2 Y139.631 E207.8956
G0 F7200 X69.6 Y141.05
G1 F1237.5 X69.6 Y81.882 E241.97637
G0 F7200 X72 Y80.992
G1 F1237.5 X72 Y141.913 E277.06687
G0 F7200 X74.4 Y143.136
G1 F1237.5 X74.4 Y79.686 E313.61407
G0 F7200 X76.8 Y78.625
G1 F1237.5 X76.8 Y144.2 E351.38527
G0 F7200 X79.2 Y144.8
G1 F1237.5 X79.2 Y78.053 E389.83154
G0 F7200 X81.6 Y77.88
G1 F1237.5 X81.6 Y144.981 E428.48171
G0 F7200 X84 Y144.981
G1 F1237.5 X84 Y77.88 E467.13189
G0 F7200 X86.4 Y77.88
G1 F1237.5 X86.4 Y144.981 E505.78207
G0 F7200 X88.8 Y144.844
G1 F1237.5 X88.8 Y78.005 E544.28133
G0 F7200 X91.2 Y78.385
G1 F1237.5 X91.2 Y144.5 E582.36357
G0 F7200 X93.6 Y145.008
G1 F1237.5 X93.6 Y77.978 E620.97285
G0 F7200 X96 Y77.125
G1 F1237.5 X96 Y145.87 E660.56997
G0 F7200 X98.4 Y146.297
G1 F1237.5 X98.4 Y76.705 E700.65496
G0 F7200 X100.8 Y76.639
G1 F1237.5 X100.8 Y146.361 E740.81483
G0 F7200 X103.2 Y146.193
G1 F1237.5 X103.2 Y76.803 E780.78347
G0 F7200 X105.6 Y77.386
G1 F1237.5 X105.6 Y145.616 E820.08395
G0 F7200 X108 Y144.944
G1 F1237.5 X108 Y78.107 E858.58207
G0 F7200 X110.4 Y78.189
G1 F1237.5 X110.4 Y144.887 E897.00011
G0 F7200 X112.8 Y144.536
G1 F1237.5 X112.8 Y78.544 E935.01151
G0 F7200 X115.2 Y79.13
G1 F1237.5 X115.2 Y143.912 E972.32594
G0 F7200 X117.6 Y144.094
G1 F1237.5 X117.6 Y78.845 E1009.90936
G0 F7200 X120 Y78.261
G1 F1237.5 X120 Y144.673 E1048.16267
G0 F7200 X122.4 Y144.843
G1 F1237.5 X122.4 Y78.087 E1086.61413
G0 F7200 X124.8 Y78.089
G1 F1237.5 X124.8 Y144.843 E1125.06443
G0 F7200 X127.2 Y145.067
G1 F1237.5 X127.2 Y78.048 E1163.66738
G0 F7200 X129.6 Y77.797
G1 F1237.5 X129.6 Y145.258 E1202.52491
G0 F7200 X132 Y145.037
G1 F1237.5 X132 Y77.954 E1241.16472
G0 F7200 X134.4 Y78.156
G1 F1237.5 X134.4 Y144.775 E1279.53727
G0 F7200 X136.8 Y144.639
G1 F1237.5 X136.8 Y78.288 E1317.75544
G0 F7200 X139.2 Y78.818
G1 F1237.5 X139.2 Y144.105 E1355.36075
G0 F7200 X141.6 Y143.111
G1 F1237.5 X141.6 Y79.818 E1391.81752
G0 F7200 X144 Y80.519
G1 F1237.5 X144 Y142.416 E1427.47019
G0 F7200 X146.4 Y142.395
G1 F1237.5 X146.4 Y80.536 E1463.10098
G0 F7200 X148.8 Y80.604
G1 F1237.5 X148.8 Y142.324 E1498.6517
G0 F7200 X151.2 Y141.898
G1 F1237.5 X151.2 Y81.038 E1533.70706
G0 F7200 X153.6 Y81.909
G1 F1237.5 X153.6 Y141.016 E1567.75269
